assets/twitch.svg

<svg xmlns="http://www.w3.org/2000/svg" width="24" height="24" viewBox="0 0 24 24"><path d="M4 2h18v12l-5 5h-4l-3 3H7v-3H2V6l2-4m16 11V4H6v12h3v3l3-3h5l3-3m-5-6h2v5h-2V7m-3 0v5h-2V7h2z"/></svg>

<?xml version="1.0" encoding="UTF-8"?><!DOCTYPE svg PUBLIC "-//W3C//DTD SVG 1.1//EN" "http://www.w3.org/Graphics/SVG/1.1/DTD/svg11.dtd"><svg xmlns="http://www.w3.org/2000/svg" xmlns:xlink="http://www.w3.org/1999/xlink" version="1.1" width="24" height="24" viewBox="0 0 24 24"><path d="M4,2H22V14L17,19H13L10,22H7V19H2V6L4,2M20,13V4H6V16H9V19L12,16H17L20,13M15,7H17V12H15V7M12,7V12H10V7H12Z" /></svg>
